icons/media/playlist-1-24.svg

<svg width="24" height="24" viewBox="0 0 24 24" fill="none" xmlns="http://www.w3.org/2000/svg">
<path fill-rule="evenodd" clip-rule="evenodd" d="M15.5 6.18058V9.62813C14.7085 9.34899 13.7921 9.52595 13.159 10.159C12.2803 11.0377 12.2803 12.4623 13.159 13.341C14.0377 14.2197 15.4623 14.2197 16.341 13.341C16.7803 12.9017 17 12.3258 17 11.75V5.56021C17 4.92235 16.4109 4.44753 15.7876 4.58303L10.0376 5.72433C9.57788 5.82427 9.25 6.23109 9.25 6.70151V10.6281C8.45851 10.349 7.54207 10.526 6.90901 11.159C6.03033 12.0377 6.03033 13.4623 6.90901 14.341C7.78769 15.2197 9.21231 15.2197 10.091 14.341C10.5303 13.9017 10.75 13.3258 10.75 12.75V7.10449L15.5 6.18058ZM15.2803 11.2197C15.4268 11.3661 15.5 11.5581 15.5 11.75C15.5 11.9419 15.4268 12.1339 15.2803 12.2803C14.9874 12.5732 14.5126 12.5732 14.2197 12.2803C13.9268 11.9874 13.9268 11.5126 14.2197 11.2197C14.5126 10.9268 14.9874 10.9268 15.2803 11.2197ZM9.03033 12.2197C9.17667 12.366 9.24989 12.5578 9.25 12.7496C9.25 12.9415 9.17677 13.1339 9.03033 13.2803C8.73744 13.5732 8.26256 13.5732 7.96967 13.2803C7.67678 12.9874 7.67678 12.5126 7.96967 12.2197C8.26256 11.9268 8.73744 11.9268 9.03033 12.2197Z" fill="black"/>
<path fill-rule="evenodd" clip-rule="evenodd" d="M3.75 1C2.7835 1 2 1.7835 2 2.75V17.25C2 18.2165 2.7835 19 3.75 19H20.25C21.2165 19 22 18.2165 22 17.25V2.75C22 1.7835 21.2165 1 20.25 1H3.75ZM3.5 2.75C3.5 2.61193 3.61193 2.5 3.75 2.5H20.25C20.3881 2.5 20.5 2.61193 20.5 2.75V17.25C20.5 17.3881 20.3881 17.5 20.25 17.5H3.75C3.61193 17.5 3.5 17.3881 3.5 17.25V2.75Z" fill="black"/>
<path d="M3.75 23C2.7835 23 2 22.2165 2 21.25V20.75C2 20.3358 2.33579 20 2.75 20C3.16421 20 3.5 20.3358 3.5 20.75V21.25C3.5 21.3881 3.61193 21.5 3.75 21.5H20.25C20.3881 21.5 20.5 21.3881 20.5 21.25V20.75C20.5 20.3358 20.8358 20 21.25 20C21.6642 20 22 20.3358 22 20.75V21.25C22 22.2165 21.2165 23 20.25 23H3.75Z" fill="black"/>
</svg>

<svg xmlns="http://www.w3.org/2000/svg" width="24" height="24"><path fill-rule="evenodd" d="M15.5 6.18v3.448A2.25 2.25 0 1017 11.75V5.56a1 1 0 00-1.212-.977l-5.75 1.141a1 1 0 00-.788.978v3.926a2.25 2.25 0 101.5 2.122V7.104l4.75-.923zm-.22 5.04a.747.747 0 010 1.06.75.75 0 110-1.06zm-6.25 1a.748.748 0 010 1.06.75.75 0 110-1.06z"/><path fill-rule="evenodd" d="M3.75 1A1.75 1.75 0 002 2.75v14.5c0 .966.784 1.75 1.75 1.75h16.5A1.75 1.75 0 0022 17.25V2.75A1.75 1.75 0 0020.25 1H3.75zM3.5 2.75a.25.25 0 01.25-.25h16.5a.25.25 0 01.25.25v14.5a.25.25 0 01-.25.25H3.75a.25.25 0 01-.25-.25V2.75z"/><path d="M3.75 23A1.75 1.75 0 012 21.25v-.5a.75.75 0 011.5 0v.5c0 .138.112.25.25.25h16.5a.25.25 0 00.25-.25v-.5a.75.75 0 011.5 0v.5A1.75 1.75 0 0120.25 23H3.75z"/></svg>
